assets/img/link.svg

<svg height="84" viewBox="0 0 84 84" width="84" xmlns="http://www.w3.org/2000/svg" xmlns:xlink="http://www.w3.org/1999/xlink"><filter id="a" filterUnits="userSpaceOnUse" height="87" width="87" x="-1.5" y="-1.5"><feOffset/><feGaussianBlur result="blur" stdDeviation="2.5"/><feFlood flood-color="#aac7e5"/><feComposite in2="blur" operator="in"/><feComposite in="SourceGraphic"/></filter><clipPath id="b"><path d="m0 0h84v84h-84z"/></clipPath><g clip-path="url(#b)"><path d="m0 0h84v84h-84z" fill="#fff"/><path d="m3 14.333h78a3 3 0 0 1 3 3v78a3 3 0 0 1 -3 3h-78a3 3 0 0 1 -3-3v-78a3 3 0 0 1 3-3z" fill="#d0e0f0" transform="translate(0 -14.333)"/><g filter="url(#a)"><rect fill="#fff" height="72" rx="3" transform="translate(6 6)" width="72"/></g><path d="m0 0h20v2h-20z" fill="#215a9c" transform="translate(32 41)"/><path d="m11.214 12.214h-3.937l2.072 5.046a.689.689 0 0 1 -.35.891l-1.824.8a.656.656 0 0 1 -.866-.36l-1.969-4.798-3.216 3.307a.657.657 0 0 1 -1.124-.476v-15.945a.657.657 0 0 1 1.124-.479l10.554 10.858a.68.68 0 0 1 -.464 1.156z" fill="#185a69" transform="translate(55 42)"/></g></svg>

<svg xmlns="http://www.w3.org/2000/svg" xmlns:xlink="http://www.w3.org/1999/xlink" width="84" height="84" viewBox="0 0 84 84">
  <defs>
    <filter id="Rectangle_543" x="-1.5" y="-1.5" width="87" height="87" filterUnits="userSpaceOnUse">
      <feOffset input="SourceAlpha"/>
      <feGaussianBlur stdDeviation="2.5" result="blur"/>
      <feFlood flood-color="#aac7e5"/>
      <feComposite operator="in" in2="blur"/>
      <feComposite in="SourceGraphic"/>
    </filter>
    <clipPath id="clip-link">
      <rect width="84" height="84"/>
    </clipPath>
  </defs>
  <g id="link" clip-path="url(#clip-link)">
    <rect width="84" height="84" fill="#fff"/>
    <g id="Group_287" data-name="Group 287" transform="translate(-554 -360)">
      <path id="Union_22" data-name="Union 22" d="M3,14.333H81a3,3,0,0,1,3,3v78a3,3,0,0,1-3,3H3a3,3,0,0,1-3-3v-78A3,3,0,0,1,3,14.333Z" transform="translate(554 345.667)" fill="#d0e0f0"/>
      <g transform="matrix(1, 0, 0, 1, 554, 360)" filter="url(#Rectangle_543)">
        <rect id="Rectangle_543-2" data-name="Rectangle 543" width="72" height="72" rx="3" transform="translate(6 6)" fill="#fff"/>
      </g>
      <rect id="Rectangle_544" data-name="Rectangle 544" width="20" height="2" transform="translate(586 401)" fill="#215a9c"/>
      <path id="Icon_awesome-mouse-pointer" data-name="Icon awesome-mouse-pointer" d="M11.214,12.214H7.277L9.349,17.26a.689.689,0,0,1-.35.891l-1.824.8a.656.656,0,0,1-.866-.36L4.34,13.793,1.124,17.1A.657.657,0,0,1,0,16.624V.679A.657.657,0,0,1,1.124.2L11.678,11.058A.68.68,0,0,1,11.214,12.214Z" transform="translate(609 402)" fill="#185a69"/>
    </g>
  </g>
</svg>
